resources/svg/brands/edge.svg

<svg fill="currentColor" xmlns="http://www.w3.org/2000/svg" viewBox="0 0 512 512"><!--! Font Awesome Free 7.0.1 by @fontawesome - https://fontawesome.com License - https://fontawesome.com/license/free (Icons: CC BY 4.0, Fonts: SIL OFL 1.1, Code: MIT License) Copyright 2025 Fonticons, Inc. --><path fill="currentColor" d="M120.1 37.4c41-25.2 87.6-38.2 134.9-37.4 168 0 257 123.8 257 219.5-.1 32.7-13 63.9-35.9 87.2-22.9 23.2-54 36.5-86.7 37-75.2 0-91.5-23.1-91.5-32 0-3.8 1.2-6.2 4.8-9.4l1-1.2 .4-1.6c10.5-11.5 15.9-26.2 15.9-41.6 0-78.7-82.2-142.7-184-142.7-37.5-.3-74.5 8.9-107.5 26.9 27-57.5 82.7-97.6 91.3-103.8 .8-.6 .3-.8 .3-.8zm15.6 318.1c-1.4 30 4.6 60 16.4 87.2 13.6 26.4 32.7 51 56.5 69.3-59.5-11.5-111.5-43.9-149.4-89.3-38.1-46.4-59.2-104.3-59.2-164.8 0-51.2 62.4-94.4 136-94.4 36.6-.6 72.4 10.9 101.8 32.7l-3.6 1.2c-51.5 17.6-98.5 90.7-98.5 158.1zM469.8 400l-.7 .1c-11.8 18.8-25.9 35.1-42.2 49.5-30.8 28-68.1 45.5-108.8 49.9-18.6 .3-36.8-3.2-53.8-11.4-25.6-10.3-47.1-30-61.6-53-14.4-23.9-21.1-51.7-19-79.6-.6-20.1 5.4-40.3 15-58.2 13.9 33.1 37.5 61.3 67.6 80.8s65.5 29.5 101.4 28.6c31 .3 62.1-6.7 90.2-20.5l1.9-.9c3.9-2.3 7.7-3.9 11.6 0 4.5 4.9 1.8 9.2-1.2 14-.2 .2-.3 .5-.4 .7z"/></svg>

<svg fill="currentColor" xmlns="http://www.w3.org/2000/svg" viewBox="0 0 512 512"><!--! Font Awesome Free 6.7.2 by @fontawesome - https://fontawesome.com License - https://fontawesome.com/license/free (Icons: CC BY 4.0, Fonts: SIL OFL 1.1, Code: MIT License) Copyright 2024 Fonticons, Inc. --><path d="M120.1 37.44C161.1 12.23 207.7-.7753 255 .0016C423 .0016 512 123.8 512 219.5C511.9 252.2 499 283.4 476.1 306.7C453.2 329.9 422.1 343.2 389.4 343.7C314.2 343.7 297.9 320.6 297.9 311.7C297.9 307.9 299.1 305.5 302.7 302.3L303.7 301.1L304.1 299.5C314.6 288 320 273.3 320 257.9C320 179.2 237.8 115.2 136 115.2C98.46 114.9 61.46 124.1 28.48 142.1C55.48 84.58 111.2 44.5 119.8 38.28C120.6 37.73 120.1 37.44 120.1 37.44V37.44zM135.7 355.5C134.3 385.5 140.3 415.5 152.1 442.7C165.7 469.1 184.8 493.7 208.6 512C149.1 500.5 97.11 468.1 59.2 422.7C21.12 376.3 0 318.4 0 257.9C0 206.7 62.4 163.5 136 163.5C172.6 162.9 208.4 174.4 237.8 196.2L234.2 197.4C182.7 215 135.7 288.1 135.7 355.5V355.5zM469.8 400L469.1 400.1C457.3 418.9 443.2 435.2 426.9 449.6C396.1 477.6 358.8 495.1 318.1 499.5C299.5 499.8 281.3 496.3 264.3 488.1C238.7 477.8 217.2 458.1 202.7 435.1C188.3 411.2 181.6 383.4 183.7 355.5C183.1 335.4 189.1 315.2 198.7 297.3C212.6 330.4 236.2 358.6 266.3 378.1C296.4 397.6 331.8 407.6 367.7 406.7C398.7 407 429.8 400 457.9 386.2L459.8 385.3C463.7 383 467.5 381.4 471.4 385.3C475.9 390.2 473.2 394.5 470.2 399.3C470 399.5 469.9 399.8 469.8 400V400z"/></svg>
